svg/color/doex.svg

<?xml version="1.0" encoding="UTF-8" ?>
<!DOCTYPE svg PUBLIC "-//W3C//DTD SVG 1.1//EN" "http://www.w3.org/Graphics/SVG/1.1/DTD/svg11.dtd">
<svg width="250pt" height="250pt" viewBox="0 0 250 250" version="1.1" xmlns="http://www.w3.org/2000/svg">
<g id="#ffffffff">
<path fill="#ffffff" opacity="1.00" d=" M 0.00 0.00 L 117.58 0.00 C 97.90 1.48 78.50 7.31 61.54 17.47 C 38.43 30.88 20.18 52.17 9.77 76.72 C 4.33 89.69 1.08 103.54 0.00 117.57 L 0.00 0.00 Z" />
<path fill="#ffffff" opacity="1.00" d=" M 132.43 0.00 L 250.00 0.00 L 250.00 117.58 C 249.07 105.63 246.61 93.82 242.51 82.55 C 232.67 55.53 213.36 31.94 188.46 17.47 C 171.51 7.31 152.11 1.48 132.43 0.00 Z" />
<path fill="#ffffff" opacity="1.00" d=" M 0.00 132.42 C 1.82 156.90 10.53 180.96 25.55 200.45 C 47.08 229.34 81.72 247.57 117.57 250.00 L 0.00 250.00 L 0.00 132.42 Z" />
<path fill="#ffffff" opacity="1.00" d=" M 214.78 211.75 C 235.43 190.55 247.93 161.91 250.00 132.43 L 250.00 250.00 L 132.42 250.00 C 163.31 247.85 193.35 234.17 214.78 211.75 Z" />
</g>
<g id="#31c2ecff">
<path fill="#31c2ec" opacity="1.00" d=" M 117.58 0.00 L 132.43 0.00 C 152.11 1.48 171.51 7.31 188.46 17.47 C 213.36 31.94 232.67 55.53 242.51 82.55 C 246.61 93.82 249.07 105.63 250.00 117.58 L 250.00 132.43 C 247.93 161.91 235.43 190.55 214.78 211.75 C 193.35 234.17 163.31 247.85 132.42 250.00 L 117.57 250.00 C 81.72 247.57 47.08 229.34 25.55 200.45 C 10.53 180.96 1.82 156.90 0.00 132.42 L 0.00 117.57 C 1.08 103.54 4.33 89.69 9.77 76.72 C 20.18 52.17 38.43 30.88 61.54 17.47 C 78.50 7.31 97.90 1.48 117.58 0.00 M 65.47 61.56 C 60.34 63.56 59.60 71.68 64.67 74.14 C 69.39 76.74 75.93 72.57 74.78 67.08 C 74.66 62.48 69.45 60.18 65.47 61.56 M 179.39 61.56 C 174.84 63.03 173.69 69.75 177.11 72.90 C 179.14 75.17 182.68 75.29 185.33 74.14 C 190.00 71.92 189.95 64.12 185.31 61.89 C 183.48 61.03 181.32 61.16 179.39 61.56 M 84.47 75.71 C 79.50 77.63 75.18 82.42 75.16 87.96 C 74.29 95.58 81.31 103.20 89.03 102.61 C 96.29 102.82 102.82 96.30 102.61 89.03 C 103.31 79.87 92.98 72.64 84.47 75.71 M 157.37 75.52 C 151.81 77.39 146.60 82.75 147.37 89.01 C 146.63 98.57 158.23 105.53 166.64 101.61 C 171.35 99.35 175.15 94.39 174.86 89.00 C 175.42 80.15 165.78 72.92 157.37 75.52 M 119.28 97.95 C 114.10 99.15 109.06 101.45 105.41 105.41 C 94.93 115.39 94.76 133.80 104.93 144.07 C 114.04 154.04 130.60 155.42 141.36 147.35 C 148.70 142.07 153.03 132.99 152.58 123.97 C 152.39 114.92 147.31 106.23 139.68 101.41 C 133.58 97.89 126.21 96.46 119.28 97.95 M 83.37 148.39 C 78.53 150.54 74.85 155.59 75.14 160.99 C 74.74 168.35 81.60 175.34 89.00 174.86 C 96.74 175.26 103.68 167.64 102.58 159.95 C 102.27 150.81 91.55 144.63 83.37 148.39 M 157.24 147.89 C 151.85 149.37 147.76 154.39 147.43 159.95 C 146.36 167.40 152.82 174.82 160.33 174.82 C 167.92 175.59 175.36 168.67 174.86 161.00 C 175.24 152.23 165.60 144.97 157.24 147.89 M 65.38 175.56 C 60.08 177.26 59.78 185.76 64.69 188.11 C 69.00 190.36 75.13 187.04 74.83 182.00 C 75.24 177.15 69.70 173.79 65.38 175.56 M 179.37 175.52 C 175.17 176.84 174.04 182.47 176.22 185.94 C 178.94 190.28 186.76 189.59 188.42 184.61 C 188.91 182.27 189.05 179.46 187.39 177.53 C 185.54 175.13 182.12 174.75 179.37 175.52 Z" />
</g>
<g id="#0b1013ff">
<path fill="#0b1013" opacity="1.00" d=" M 65.47 61.56 C 69.45 60.18 74.66 62.48 74.78 67.08 C 75.93 72.57 69.39 76.74 64.67 74.14 C 59.60 71.68 60.34 63.56 65.47 61.56 Z" />
<path fill="#0b1013" opacity="1.00" d=" M 179.39 61.56 C 181.32 61.16 183.48 61.03 185.31 61.89 C 189.95 64.12 190.00 71.92 185.33 74.14 C 182.68 75.29 179.14 75.17 177.11 72.90 C 173.69 69.75 174.84 63.03 179.39 61.56 Z" />
<path fill="#0b1013" opacity="1.00" d=" M 84.47 75.71 C 92.98 72.64 103.31 79.87 102.61 89.03 C 102.82 96.30 96.29 102.82 89.03 102.61 C 81.31 103.20 74.29 95.58 75.16 87.96 C 75.18 82.42 79.50 77.63 84.47 75.71 Z" />
<path fill="#0b1013" opacity="1.00" d=" M 157.37 75.52 C 165.78 72.92 175.42 80.15 174.86 89.00 C 175.15 94.39 171.35 99.35 166.64 101.61 C 158.23 105.53 146.63 98.57 147.37 89.01 C 146.60 82.75 151.81 77.39 157.37 75.52 Z" />
<path fill="#0b1013" opacity="1.00" d=" M 119.28 97.95 C 126.21 96.46 133.58 97.89 139.68 101.41 C 147.31 106.23 152.39 114.92 152.58 123.97 C 153.03 132.99 148.70 142.07 141.36 147.35 C 130.60 155.42 114.04 154.04 104.93 144.07 C 94.76 133.80 94.93 115.39 105.41 105.41 C 109.06 101.45 114.10 99.15 119.28 97.95 Z" />
<path fill="#0b1013" opacity="1.00" d=" M 83.37 148.39 C 91.55 144.63 102.27 150.81 102.58 159.95 C 103.68 167.64 96.74 175.26 89.00 174.86 C 81.60 175.34 74.74 168.35 75.14 160.99 C 74.85 155.59 78.53 150.54 83.37 148.39 Z" />
<path fill="#0b1013" opacity="1.00" d=" M 157.24 147.89 C 165.60 144.97 175.24 152.23 174.86 161.00 C 175.36 168.67 167.92 175.59 160.33 174.82 C 152.82 174.82 146.36 167.40 147.43 159.95 C 147.76 154.39 151.85 149.37 157.24 147.89 Z" />
<path fill="#0b1013" opacity="1.00" d=" M 65.38 175.56 C 69.70 173.79 75.24 177.15 74.83 182.00 C 75.13 187.04 69.00 190.36 64.69 188.11 C 59.78 185.76 60.08 177.26 65.38 175.56 Z" />
<path fill="#0b1013" opacity="1.00" d=" M 179.37 175.52 C 182.12 174.75 185.54 175.13 187.39 177.53 C 189.05 179.46 188.91 182.27 188.42 184.61 C 186.76 189.59 178.94 190.28 176.22 185.94 C 174.04 182.47 175.17 176.84 179.37 175.52 Z" />
</g>
</svg>

<?xml version="1.0" encoding="utf-8"?>
<!-- Generator: Adobe Illustrator 26.0.3, SVG Export Plug-In . SVG Version: 6.00 Build 0)  -->
<svg version="1.1" id="Layer_1" xmlns="http://www.w3.org/2000/svg" xmlns:xlink="http://www.w3.org/1999/xlink" x="0px" y="0px"
	 viewBox="0 0 250 250" style="enable-background:new 0 0 250 250;" xml:space="preserve">
<style type="text/css">
	.st0{fill:#31C2EC;}
	.st1{fill:#0B1013;}
</style>
<g id="_x23_31c2ecff">
	<path class="st0" d="M117.6,0h14.8c19.7,1.5,39.1,7.3,56,17.5c24.9,14.5,44.2,38.1,54,65.1c4.1,11.3,6.6,23.1,7.5,35v14.8
		c-2.1,29.5-14.6,58.1-35.2,79.3c-21.4,22.4-51.5,36.1-82.4,38.2h-14.8c-35.8-2.4-70.5-20.7-92-49.6c-15-19.5-23.7-43.6-25.5-68
		v-14.8c1.1-14,4.3-27.9,9.8-40.8c10.4-24.6,28.7-45.8,51.8-59.2C78.5,7.3,97.9,1.5,117.6,0 M65.5,61.6c-5.1,2-5.9,10.1-0.8,12.6
		c4.7,2.6,11.3-1.6,10.1-7.1C74.7,62.5,69.4,60.2,65.5,61.6 M179.4,61.6c-4.6,1.5-5.7,8.2-2.3,11.3c2,2.3,5.6,2.4,8.2,1.2
		c4.7-2.2,4.6-10,0-12.2C183.5,61,181.3,61.2,179.4,61.6 M84.5,75.7c-5,1.9-9.3,6.7-9.3,12.2c-0.9,7.6,6.1,15.2,13.9,14.7
		c7.3,0.2,13.8-6.3,13.6-13.6C103.3,79.9,93,72.6,84.5,75.7 M157.4,75.5c-5.6,1.9-10.8,7.2-10,13.5c-0.7,9.6,10.9,16.5,19.3,12.6
		c4.7-2.3,8.5-7.2,8.2-12.6C175.4,80.2,165.8,72.9,157.4,75.5 M119.3,97.9c-5.2,1.2-10.2,3.5-13.9,7.5c-10.5,10-10.7,28.4-0.5,38.7
		c9.1,10,25.7,11.3,36.4,3.3c7.3-5.3,11.7-14.4,11.2-23.4c-0.2-9.1-5.3-17.7-12.9-22.6C133.6,97.9,126.2,96.5,119.3,97.9
		 M83.4,148.4c-4.8,2.1-8.5,7.2-8.2,12.6c-0.4,7.4,6.5,14.3,13.9,13.9c7.7,0.4,14.7-7.2,13.6-14.9
		C102.3,150.8,91.6,144.6,83.4,148.4 M157.2,147.9c-5.4,1.5-9.5,6.5-9.8,12.1c-1.1,7.4,5.4,14.9,12.9,14.9c7.6,0.8,15-6.2,14.5-13.8
		C175.2,152.2,165.6,145,157.2,147.9 M65.4,175.6c-5.3,1.7-5.6,10.2-0.7,12.6c4.3,2.2,10.4-1.1,10.1-6.1
		C75.2,177.1,69.7,173.8,65.4,175.6 M179.4,175.5c-4.2,1.3-5.3,6.9-3.1,10.4c2.7,4.3,10.5,3.6,12.2-1.3c0.5-2.3,0.6-5.1-1-7.1
		C185.5,175.1,182.1,174.8,179.4,175.5z"/>
</g>
<g id="_x23_0b1013ff">
	<path class="st1" d="M65.5,61.6c4-1.4,9.2,0.9,9.3,5.5c1.2,5.5-5.4,9.7-10.1,7.1C59.6,71.7,60.3,63.6,65.5,61.6z"/>
	<path class="st1" d="M179.4,61.6c1.9-0.4,4.1-0.5,5.9,0.3c4.6,2.2,4.7,10,0,12.2c-2.7,1.2-6.2,1-8.2-1.2
		C173.7,69.8,174.8,63,179.4,61.6z"/>
	<path class="st1" d="M84.5,75.7c8.5-3.1,18.8,4.2,18.1,13.3c0.2,7.3-6.3,13.8-13.6,13.6c-7.7,0.6-14.7-7-13.9-14.7
		C75.2,82.4,79.5,77.6,84.5,75.7z"/>
	<path class="st1" d="M157.4,75.5c8.4-2.6,18.1,4.6,17.5,13.5c0.3,5.4-3.5,10.3-8.2,12.6c-8.4,3.9-20-3-19.3-12.6
		C146.6,82.8,151.8,77.4,157.4,75.5z"/>
	<path class="st1" d="M119.3,97.9c6.9-1.5,14.3-0.1,20.4,3.5c7.6,4.8,12.7,13.5,12.9,22.6c0.4,9-3.9,18.1-11.2,23.4
		c-10.8,8.1-27.3,6.7-36.4-3.3c-10.2-10.3-10-28.7,0.5-38.7C109.1,101.4,114.1,99.2,119.3,97.9z"/>
	<path class="st1" d="M83.4,148.4c8.2-3.8,18.9,2.4,19.2,11.6c1.1,7.7-5.8,15.3-13.6,14.9c-7.4,0.5-14.3-6.5-13.9-13.9
		C74.8,155.6,78.5,150.5,83.4,148.4z"/>
	<path class="st1" d="M157.2,147.9c8.4-2.9,18,4.3,17.6,13.1c0.5,7.7-6.9,14.6-14.5,13.8c-7.5,0-14-7.4-12.9-14.9
		C147.8,154.4,151.9,149.4,157.2,147.9z"/>
	<path class="st1" d="M65.4,175.6c4.3-1.8,9.9,1.6,9.5,6.4c0.3,5-5.8,8.4-10.1,6.1C59.8,185.8,60.1,177.3,65.4,175.6z"/>
	<path class="st1" d="M179.4,175.5c2.8-0.8,6.2-0.4,8,2c1.7,1.9,1.5,4.7,1,7.1c-1.7,5-9.5,5.7-12.2,1.3
		C174,182.5,175.2,176.8,179.4,175.5z"/>
</g>
</svg>
